!!!COM:	Josquin des Prez
!!!CDT:	~1450-1521/08/27
!!!COA2: La Rue, Pierre de
!!!CDT2: ~1452///-1518/11/20/
!!!OPR:	Missa De beata virgine
!!!ONM:	5
!!!OTL:	Agnus Dei
!!!AGN:	Mass; Agnus Dei
!!!SCT:	NJE 3.3
!!!SCA:	New Josquin Edition 3.3
!!!voices: 4
!!!voices-OPR:	4-5
**kern	**kern	**kern	**kern	**kern
*Ivox	*Ivox	*Ivox	*Ivox	*Ivox
*I"Bassus	*I"Tenor2	*I"Altus	*I"Tenor1	*I"Superius
*I'B	*I'T2	*I'A	*I'T1	*I'S
*staff5	*staff4	*staff3	*staff2	*staff1
*clefF4	*clefGv2	*clefGv2	*clefG2	*clefG2
*k[]	*k[]	*k[]	*k[]	*k[]
*M3/1	*M3/1	*M3/1	*M3/1	*M3/1
*met(O)	*met(O)	*met(O)	*met(O)	*met(O)
=1-	=1-	=1-	=1-	=1-
!	!	!	!LO:TX:Z=10:X=-40:t=Canon&colon; Vous jeunerez les quatre temps. [T2-->T1 canon at the upper fifth]	!
1.c	0c	0.r	0.r	0.r
4B\	.	.	.	.
4A\	.	.	.	.
2B\	[1d	.	.	.
[2G\	.	.	.	.
=2	=2	=2	=2	=2
2G\]	1d]	0.r	0.r	0.r
4F\	.	.	.	.
4E\	.	.	.	.
2F\	0d	.	.	.
2G\	.	.	.	.
2D\	.	.	.	.
[2G\	.	.	.	.
=3	=3	=3	=3	=3
4G\]	0e	0.r	0.r	0.r
4F\	.	.	.	.
4E\	.	.	.	.
4D\	.	.	.	.
2C/	.	.	.	.
2c\	.	.	.	.
2B\	2.d\	.	.	.
[2G\	.	.	.	.
.	4c\	.	.	.
=4	=4	=4	=4	=4
4G\]	2d\	0.r	0.r	0.r
4F\	.	.	.	.
2G\	2.e\	.	.	.
2E\	.	.	.	.
.	4d\	.	.	.
2F\	1c	.	.	.
1D	.	.	.	.
.	2B\	.	.	.
=5	=5	=5	=5	=5
1.C	0.c	1r	0g	0.r
.	.	1.c	.	.
4D\	.	.	.	.
4E\	.	.	.	.
[1F	.	.	[1a	.
.	.	4d\	.	.
.	.	4e\	.	.
=6	=6	=6	=6	=6
2F\]	0.r	1.f	1a]	0.r
4E\	.	.	.	.
4D\	.	.	.	.
1.D	.	.	0a	.
.	.	4e\	.	.
.	.	4d\	.	.
.	.	[1d	.	.
4E\	.	.	.	.
4F\	.	.	.	.
=7	=7	=7	=7	=7
0G	0.r	2d\]	0b	0.r
.	.	4e\	.	.
.	.	4f\	.	.
.	.	1g	.	.
2.D\	.	2r	2.a/	.
.	.	[2f\	.	.
4E\	.	.	4g/	.
=8	=8	=8	=8	=8
2F\	0.r	4f\]	2a/	0.r
.	.	4e\	.	.
2G\	.	4d\	2.b\	.
.	.	4c\	.	.
2B\	.	2d\	.	.
.	.	.	4a/	.
2c\	.	2e\	1g	.
1A	.	1c	.	.
.	.	.	2f#i/	.
=9	=9	=9	=9	=9
0G	1r	2.d\	0.g	0.r
.	.	4c\	.	.
.	1r	2d\	.	.
.	.	1e	.	.
1C	1c	.	.	.
.	.	4d\	.	.
.	.	4c\	.	.
=10	=10	=10	=10	=10
1.G	1d	2.B\	0.r	1r
.	.	4A/	.	.
.	0e	2B\	.	1r
2E\	.	1c	.	.
1A	.	.	.	1cc
.	.	4B\	.	.
.	.	4A/	.	.
=11	=11	=11	=11	=11
2.G\	1.g	0B	0.r	1dd
4F\	.	.	.	.
2E\	.	.	.	1ee
2D\	2f\	.	.	.
2C/	2e\	2r	.	2.gg\
2G\	2d\	2B\	.	.
.	.	.	.	4ff\
=12	=12	=12	=12	=12
2A\	2c\	2c\	0.r	2ee\
2D\	2.f\	2d\	.	2dd\
2A\	.	1e	.	2cc\
.	4e\	.	.	.
2E\	1e	.	.	2b\
1F	.	1A	.	1a
.	2d\	.	.	.
=13	=13	=13	=13	=13
1.E	0.e	2B\	1r	1g
.	.	2c\	.	.
.	.	2G/	1r	2.gg\
2C/	.	4c\	.	.
.	.	4d\	.	4ff\
2.c\	.	4e\	1g	4ee\
.	.	4f\	.	4dd\
.	.	[2g\	.	[2ee\
4B\	.	.	.	.
=14	=14	=14	=14	=14
1A	0.r	2g\]	1a	2ee\]
.	.	2f\	.	2cc\
0G	.	1g	0b	2b\
.	.	.	.	2g/
.	.	2.d\	.	[1dd
.	.	4c\	.	.
=15	=15	=15	=15	=15
1r	0.r	2B\	1.dd	2dd\]
.	.	2A/	.	2cc\
1r	.	1G	.	2b\
.	.	.	2cc\	2a/
1G	.	1g	2b\	1g
.	.	.	2a/	.
=16	=16	=16	=16	=16
2.c\	1r	2.e\	2g/	0.r
.	.	.	2.cc\	.
4B\	.	4d\	.	.
2A\	1r	4e\	.	.
.	.	4f\	4b\	.
2G\	.	1g	1b	.
1A	1c	.	.	.
.	.	2f#i\	2a/	.
=17	=17	=17	=17	=17
0G	0d	1g	0.b	1r
.	.	2r	.	1r
.	.	2.G/	.	.
1E	1e	.	.	1g
.	.	4A/	.	.
.	.	4B\	.	.
.	.	4G/	.	.
=18	=18	=18	=18	=18
2.D\	2.f\	2d\	0.r	0a
.	.	2c\	.	.
4E\	4e\	.	.	.
2F\	2d\	2f\	.	.
2A\	2c\	2e\	.	.
1G	1d	2g\	.	1b
.	.	2G/	.	.
=19	=19	=19	=19	=19
*	*	*M3/1	*	*
*	*	*met(3)	*	*
2C/	1e	3.c\	0.r	2.cc\
2c\	.	6d\	.	.
.	.	3e\	.	.
.	.	.	.	4b\
2d\	1r	3f\	.	2a/
.	.	3d\	.	.
2B\	.	.	.	2g/
.	.	3%2g	.	.
1A	1c	.	.	1a
.	.	3e\	.	.
.	.	3f#i\	.	.
=20	=20	=20	=20	=20
*	*	*M3/1	*	*
*	*	*met(O)	*	*
1.G	0d	2g\	1r	2.b\
.	.	4G/	.	.
.	.	4A/	.	4cc\
.	.	4B\	1r	1dd
.	.	4c\	.	.
2F\	.	2d\	.	.
1E	1e	4G/	1g	2r
.	.	4A/	.	.
.	.	4B\	.	2gg\
.	.	4G/	.	.
=21	=21	=21	=21	=21
1D	2.f\	1d	0a	2ff\
.	.	.	.	2dd\
.	4e\	.	.	.
1r	2d\	1r	.	2ff\
.	2c\	.	.	2ee\
1G	1d	2r	1b	1dd
.	.	[2g\	.	.
=22	=22	=22	=22	=22
1C	0.c	2g\]	2.cc\	1ee
.	.	2e\	.	.
.	.	.	4b\	.
2F\	.	2f\	2a/	1r
2E\	.	2g\	2g/	.
1A	.	4c\	1a	1cc
.	.	4d\	.	.
.	.	4e\	.	.
.	.	4c\	.	.
=23	=23	=23	=23	=23
1.G	0.r	0g	1b	0dd
.	.	.	1r	.
2F\	.	.	.	.
1E	.	2r	1g	1ee
.	.	2g\	.	.
=24	=24	=24	=24	=24
1D	0.r	2.f\	0a	1.ff
.	.	4e\	.	.
1r	.	2d\	.	.
.	.	2c\	.	2ee\
1G	.	1d	1b	1dd
=25	=25	=25	=25	=25
2E\	[0.cl	2.c\	2.cc\	0ee
2.A\	.	.	.	.
.	.	4d\	4b\	.
.	.	1e	2a/	.
4G\	.	.	.	.
2E\	.	.	2g/	.
2.F\	.	1A	1a	1cc
4E\	.	.	.	.
=26	=26	=26	=26	=26
0.Cl	0.c]	0.el	0.gl	0.ccl
!!LO:LB:i:g=z
=27||	=27||	=27||	=27||	=27||
*>B	*>B	*>B	*>B	*>B
!!section: Agnus Dei II
!!!OMD: Agnus Dei II
*k[]	*k[]	*k[]	*k[]	*k[]
*M2/1	*M2/1	*M2/1	*M2/1	*M2/1
*met(C|)	*met(C|)	*met(C|)	*met(C|)	*met(C|)
1.C	0r	[0c	0r	0r
2D\	.	.	.	.
=28	=28	=28	=28	=28
1E	0r	0c_	0r	0r
1F	.	.	.	.
=29	=29	=29	=29	=29
1C	0r	0c_	0r	0r
[1F	.	.	.	.
=30	=30	=30	=30	=30
2F\]	0r	0c]	0r	0r
2G\	.	.	.	.
2A\	.	.	.	.
2B\	.	.	.	.
=31	=31	=31	=31	=31
1c	0r	1.e	0r	0r
[1C	.	.	.	.
.	.	2f\	.	.
=32	=32	=32	=32	=32
2C/]	0r	1g	0r	0r
2D\	.	.	.	.
1E	.	[1c	.	.
=33	=33	=33	=33	=33
1F	0r	2c\]	0r	0r
.	.	2d\	.	.
1C	.	1e	.	.
=34	=34	=34	=34	=34
2.F\	0r	1f	0r	0r
4G\	.	.	.	.
2A\	.	[1c	.	.
2B\	.	.	.	.
=35	=35	=35	=35	=35
1c	0r	2c\]	0r	0r
.	.	2d\	.	.
[1C	.	2e\	.	.
.	.	2f\	.	.
=36	=36	=36	=36	=36
2C/]	0r	1g	0r	0r
2D\	.	.	.	.
2E\	.	2G/	.	.
2F\	.	2A/	.	.
=37	=37	=37	=37	=37
2G\	0r	2B\	0r	0r
2A\	.	2c\	.	.
2B\	.	2d\	.	.
[2c\	.	[2e\	.	.
=38	=38	=38	=38	=38
4c\]	0r	4e\]	0r	0r
4B\	.	4d\	.	.
4A\	.	2.g\	.	.
4G\	.	.	.	.
1A	.	.	.	.
.	.	4f#i\	.	.
.	.	4f#i\	.	.
.	.	4e\	.	.
=39	=39	=39	=39	=39
1.G	0r	0g	0r	0r
4F\	.	.	.	.
4E\	.	.	.	.
=40	=40	=40	=40	=40
2A\	0r	0r	0r	0r
2.G\	.	.	.	.
4F\	.	.	.	.
4E\	.	.	.	.
4D\	.	.	.	.
=41	=41	=41	=41	=41
0C	0r	1.g	0r	0r
.	.	4f\	.	.
.	.	4e\	.	.
=42	=42	=42	=42	=42
1r	0r	2a\	0r	0r
.	.	2.g\	.	.
1c	.	.	.	.
.	.	4f\	.	.
.	.	4e\	.	.
.	.	4d\	.	.
=43	=43	=43	=43	=43
0e	0r	0c	0r	0r
=44	=44	=44	=44	=44
0d	0r	1r	0r	0r
.	.	1f	.	.
=45	=45	=45	=45	=45
1.c	0r	0a	0r	0r
4B\	.	.	.	.
4A\	.	.	.	.
=46	=46	=46	=46	=46
1B	0r	0g	0r	0r
1c	.	.	.	.
=47	=47	=47	=47	=47
1.d	0r	1.f	0r	0r
4c\	.	4e\	.	.
4B\	.	4d\	.	.
=48	=48	=48	=48	=48
1A	0r	2e\	0r	0r
.	.	2f\	.	.
1G	.	[1g	.	.
=49	=49	=49	=49	=49
1.c	0r	2g\]	0r	0r
.	.	2f\	.	.
.	.	2e\	.	.
2B\	.	2d\	.	.
=50	=50	=50	=50	=50
2A\	0r	1c	0r	0r
2G\	.	.	.	.
2F\	.	[1f	.	.
2E\	.	.	.	.
=51	=51	=51	=51	=51
1D	0r	2f\]	0r	0r
.	.	4e\	.	.
.	.	4d\	.	.
1C	.	2e\	.	.
.	.	[2g\	.	.
=52	=52	=52	=52	=52
1.c	0r	2g\]	0r	0r
.	.	2f\	.	.
.	.	2e\	.	.
2B\	.	2d\	.	.
=53	=53	=53	=53	=53
2A\	0r	2f\	0r	0r
2G\	.	2.e\	.	.
2.c\	.	.	.	.
.	.	4d\	.	.
.	.	2g\	.	.
4B\	.	.	.	.
=54	=54	=54	=54	=54
2A\	0r	2f\	0r	0r
2G\	.	2.e\	.	.
2.c\	.	.	.	.
.	.	4d\	.	.
.	.	2g\	.	.
4B\	.	.	.	.
=55	=55	=55	=55	=55
2A\	0r	2f\	0r	0r
2G\	.	1e	.	.
1F	.	.	.	.
.	.	2d\	.	.
=56	=56	=56	=56	=56
[0E	0r	0e	0r	0r
=57	=57	=57	=57	=57
0E]	0r	0r	0r	0r
=58	=58	=58	=58	=58
1r	0r	0e	0r	0r
[1A	.	.	.	.
=59	=59	=59	=59	=59
1A]	0r	0c	0r	0r
[1F	.	.	.	.
=60	=60	=60	=60	=60
1F]	0r	[0d	0r	0r
[1G	.	.	.	.
=61	=61	=61	=61	=61
1G]	0r	0d]	0r	0r
[1F	.	.	.	.
=62	=62	=62	=62	=62
2F\]	0r	1.c	0r	0r
4E\	.	.	.	.
4D\	.	.	.	.
2E\	.	.	.	.
2F\	.	4B\	.	.
.	.	4A/	.	.
=63	=63	=63	=63	=63
1.G	0r	2B\	0r	0r
.	.	2c\	.	.
.	.	[1d	.	.
4F\	.	.	.	.
4E\	.	.	.	.
=64	=64	=64	=64	=64
2F\	0r	2d\]	0r	0r
2G\	.	4c\	.	.
.	.	4B\	.	.
[1A	.	2c\	.	.
.	.	2d\	.	.
=65	=65	=65	=65	=65
2A\]	0r	1.e	0r	0r
4G\	.	.	.	.
4F\	.	.	.	.
2G\	.	.	.	.
2A\	.	4d\	.	.
.	.	4c\	.	.
=66	=66	=66	=66	=66
1.B-i	0r	2d\	0r	0r
.	.	2e\	.	.
.	.	[1f	.	.
4A\	.	.	.	.
4G\	.	.	.	.
=67	=67	=67	=67	=67
2A\	0r	2f\]	0r	0r
2B\	.	4e\	.	.
.	.	4d\	.	.
[1c	.	2e\	.	.
.	.	2f\	.	.
=68	=68	=68	=68	=68
2c\]	0r	1.g	0r	0r
4B\	.	.	.	.
4A\	.	.	.	.
2B\	.	.	.	.
2c\	.	4f\	.	.
.	.	4e\	.	.
=69	=69	=69	=69	=69
2F\	0r	2f\	0r	0r
1c	.	2g\	.	.
.	.	2c\	.	.
4B\	.	[2g\	.	.
4A\	.	.	.	.
=70	=70	=70	=70	=70
2B\	0r	2g\]	0r	0r
2c\	.	4f\	.	.
.	.	4e\	.	.
2A\	.	2f\	.	.
[2G\	.	2g\	.	.
=71	=71	=71	=71	=71
4G\]	0r	2e\	0r	0r
4A\	.	.	.	.
2.B-\	.	2d\	.	.
.	.	2.f\	.	.
4A\	.	.	.	.
4F\	.	.	.	.
4G\	.	4e\	.	.
=72	=72	=72	=72	=72
4A\	0r	2.c\	0r	0r
4B\	.	.	.	.
2c\	.	.	.	.
.	.	4d\	.	.
4C/	.	4e\	.	.
4D\	.	4f\	.	.
4E\	.	[2g\	.	.
4F\	.	.	.	.
=73	=73	=73	=73	=73
2.G\	0r	4g\]	0r	0r
.	.	4f\	.	.
.	.	4e\	.	.
4F\	.	4d\	.	.
2A\	.	2f\	.	.
[2G\	.	[2e\	.	.
=74	=74	=74	=74	=74
2G\]	0r	4e\]	0r	0r
.	.	4d\	.	.
2E\	.	1c	.	.
2F\	.	.	.	.
2G\	.	2B\	.	.
=75	=75	=75	=75	=75
4C/	0r	2.c\	0r	0r
4D\	.	.	.	.
4E\	.	.	.	.
4F\	.	4d\	.	.
2G\	.	4e\	.	.
.	.	4f\	.	.
2C/	.	[2g\	.	.
=76	=76	=76	=76	=76
2.c\	0r	4g\]	0r	0r
.	.	4f\	.	.
.	.	4e\	.	.
4B\	.	4d\	.	.
2A\	.	2f\	.	.
2G\	.	[2e\	.	.
=77	=77	=77	=77	=77
2F\	0r	4e\]	0r	0r
.	.	4d\	.	.
2E\	.	1c	.	.
1D	.	.	.	.
.	.	2B\	.	.
=78	=78	=78	=78	=78
2.C/	0r	0c	0r	0r
4D\	.	.	.	.
2E\	.	.	.	.
2F\	.	.	.	.
=79	=79	=79	=79	=79
2C/	0r	1r	0r	0r
4F\	.	.	.	.
4G\	.	.	.	.
4A\	.	1c	.	.
4B\	.	.	.	.
[2c\	.	.	.	.
=80	=80	=80	=80	=80
2c\]	0r	2.d\	0r	0r
4B\	.	.	.	.
4A\	.	4c\	.	.
2B\	.	2d\	.	.
2c\	.	[2e\	.	.
=81	=81	=81	=81	=81
2.G\	0r	4e\]	0r	0r
.	.	4d\	.	.
.	.	4e\	.	.
4A\	.	4c\	.	.
2B\	.	2d\	.	.
2c\	.	[2e\	.	.
=82	=82	=82	=82	=82
2G\	0r	4e\]	0r	0r
.	.	4d\	.	.
2.c\	.	4e\	.	.
.	.	4c\	.	.
.	.	1d	.	.
4B\	.	.	.	.
4B\	.	.	.	.
4A\	.	.	.	.
=83	=83	=83	=83	=83
0cl	0r	0cl	0r	0r
!!LO:LB:i:g=z
=84||	=84||	=84||	=84||	=84||
*>C	*>C	*>C	*>C	*>C
*k[]	*k[]	*k[]	*k[]	*k[]
*M2/1	*M2/1	*M2/1	*M2/1	*M2/1
*met(C|)	*met(C|)	*met(C|)	*met(C|)	*met(C|)
!!section: Agnus Dei III
!!!OMD: Agnus Dei III
!	!	!	!LO:TX:Z=10:X=-50:t=Canon&colon; Vous jeunerez les quatre temps. [T2-->T1 canon at the upper fifth]	!
1r	1c	0r	0r	0r
1F	1d	.	.	.
=85	=85	=85	=85	=85
1G	1d	0r	0r	0r
1G	[1e	.	.	.
=86	=86	=86	=86	=86
1A	2e\]	0r	0r	2.cc\
.	2c\	.	.	.
.	.	.	.	4b\
2F\	2d\	.	.	2a/
[2G\	[2e\	.	.	2g/
=87	=87	=87	=87	=87
2G\]	4e\]	0r	0r	2b\
.	4d\	.	.	.
2E\	1c	.	.	2cc\
1D	.	.	.	1dd
.	2B\	.	.	.
=88	=88	=88	=88	=88
0C	0c	1r	1g	0ee
.	.	1c	1a	.
=89	=89	=89	=89	=89
0r	0r	1d	1a	0r
.	.	1d	[1b	.
=90	=90	=90	=90	=90
0r	0r	1e	2b\]	0r
.	.	.	2g/	.
.	.	2c\	2a/	.
.	.	[2d\	[2b\	.
=91	=91	=91	=91	=91
0r	0r	2d\]	4b\]	1r
.	.	.	4a/	.
.	.	2B\	1g	.
.	.	1A	.	1cc
.	.	.	2f#i/	.
=92	=92	=92	=92	=92
1r	1r	1G	0g	2b\
.	.	.	.	2g/
1C	1c	2r	.	1cc
.	.	2e\	.	.
=93	=93	=93	=93	=93
2.G\	1.d	2d\	0r	2.b\
.	.	1g	.	.
4F\	.	.	.	4a/
2G\	.	.	.	2b\
2A\	2c\	2e\	.	2cc\
=94	=94	=94	=94	=94
2F\	1d	4f\	0r	2a/
.	.	4e\	.	.
2.G\	.	4d\	.	2.b\
.	.	4c\	.	.
.	2e\	2B\	.	.
4E\	.	.	.	4g/
2A\	2c\	2A/	.	2cc\
=95	=95	=95	=95	=95
2G\	2d\	2B\	0r	2b\
2E\	1e	2c\	.	2g/
1F	.	2.A/	.	1a
.	2d\	.	.	.
.	.	4B\	.	.
=96	=96	=96	=96	=96
0E	0e	2c\	1r	1g
.	.	2B\	.	.
.	.	1e	1g	2r
.	.	.	.	[2gg\
=97	=97	=97	=97	=97
0r	0r	2.d\	1.a	2gg\]
.	.	.	.	4ff\
.	.	4c\	.	4ee\
.	.	2d\	.	2ff\
.	.	2e\	2g/	2gg\
=98	=98	=98	=98	=98
0r	0r	2c\	1a	2ee\
.	.	2d\	.	2ff\
.	.	2B\	2b\	2dd\
.	.	2e\	2g/	2gg\
=99	=99	=99	=99	=99
0r	0r	2d\	2a/	2ff\
.	.	2B\	1b	2dd\
.	.	1c	.	1ee
.	.	.	2a/	.
=100	=100	=100	=100	=100
2r	1r	1B	0b	0dd
1G	.	.	.	.
.	1g	1G	.	.
4F\	.	.	.	.
4E\	.	.	.	.
=101	=101	=101	=101	=101
2D\	1.f	2.d\	0r	0r
1d	.	.	.	.
.	.	4e\	.	.
.	.	4f\	.	.
.	.	4g\	.	.
2c\	2e\	[2a\	.	.
=102	=102	=102	=102	=102
2B\	1d	4a\]	0r	0r
.	.	4g\	.	.
2G\	.	1g	.	.
1A	1c	.	.	.
.	.	2f#i\	.	.
=103	=103	=103	=103	=103
1G	1d	1g	0r	0r
1A	1c	2e\	.	.
.	.	[2f\	.	.
=104	=104	=104	=104	=104
1F	0d	4f\]	1r	0r
.	.	4e\	.	.
.	.	4d\	.	.
.	.	4c\	.	.
1G	.	1B	1dd	.
=105	=105	=105	=105	=105
0C	0e	2.c\	1.cc	0r
.	.	4d\	.	.
.	.	4e\	.	.
.	.	4f\	.	.
.	.	[2g\	2b\	.
=106	=106	=106	=106	=106
0r	0r	2g\]	1a	2.cc\
.	.	2f\	.	.
.	.	.	.	4dd\
.	.	2g\	1g	4ee\
.	.	.	.	4ff\
.	.	2e\	.	[2gg\
=107	=107	=107	=107	=107
0r	0r	1d	1a	2gg\]
.	.	.	.	2ff\
.	.	1e	1g	2gg\
.	.	.	.	[2ee\
=108	=108	=108	=108	=108
0r	0r	1c	0a	4ee\]
.	.	.	.	4dd\
.	.	.	.	4cc\
.	.	.	.	4b\
.	.	1d	.	1a
=109	=109	=109	=109	=109
1r	1d	1G	0b	0g
1G	1e	1g	.	.
=110	=110	=110	=110	=110
1A	1c	1e	0r	0r
1F	1d	1f	.	.
=111	=111	=111	=111	=111
1G	1r	2.d\	0r	0r
.	.	4c\	.	.
1r	1d	4B\	.	.
.	.	4A/	.	.
.	.	2G/	.	.
=112	=112	=112	=112	=112
1G	1e	1g	0r	0r
1A	1c	2e\	.	.
.	.	[2f\	.	.
=113	=113	=113	=113	=113
2F\	0d	4f\]	1a	1r
.	.	4e\	.	.
2F\	.	4d\	.	.
.	.	4c\	.	.
1G	.	4B\	1b	1dd
.	.	4c\	.	.
.	.	4d\	.	.
.	.	4B\	.	.
=114	=114	=114	=114	=114
1C	0r	1c	1g	1ee
[1F	.	2r	1a	1cc
.	.	2f\	.	.
=115	=115	=115	=115	=115
2F\]	0r	2d\	1r	1dd
2F\	.	2.f\	.	.
2F\	.	.	1a	1r
.	.	4e\	.	.
2F\	.	4d\	.	.
.	.	4c\	.	.
=116	=116	=116	=116	=116
1G	0r	4B\	1b	1dd
.	.	4c\	.	.
.	.	4d\	.	.
.	.	4B\	.	.
1C	.	[1c	1g	2.ee\
.	.	.	.	4dd\
=117	=117	=117	=117	=117
2.F\	1r	2c\]	0a	4cc\
.	.	.	.	4b\
.	.	4d\	.	2.cc\
4F\	.	4e\	.	.
2F\	1c	2f\	.	.
.	.	.	.	4b\
2A\	.	2e\	.	4cc\
.	.	.	.	4a/
=118	=118	=118	=118	=118
1G	1d	1g	0r	1b
1C	1e	2r	.	[1cc
.	.	2g\	.	.
=119	=119	=119	=119	=119
1.F	2.f\	1a	0r	2cc\]
.	.	.	.	4dd\
.	4e\	.	.	4ee\
.	4d\	[1f	.	2.ff\
.	4c\	.	.	.
2F\	[2f\	.	.	.
.	.	.	.	4ee\
=120	=120	=120	=120	=120
2F\	4f\]	2f\]	0r	4dd\
.	4e\	.	.	4cc\
2A\	4d\	2f\	.	1cc
.	4c\	.	.	.
1G	1d	1g	.	.
.	.	.	.	2b\
=121	=121	=121	=121	=121
1C	0c	1e	1r	2cc\
.	.	.	.	2gg\
2C/	.	2e\	1g	2ee\
2C/	.	2e\	.	2gg\
=122	=122	=122	=122	=122
2F\	0r	2f\	1a	2.ff\
2D\	.	2f\	.	.
.	.	.	.	4ee\
1G	.	1g	1b	1dd
=123	=123	=123	=123	=123
2C/	[0cl	2e\	2.cc\	1cc
1F	.	1f	.	.
.	.	.	4b\	.
.	.	.	4a/	1r
.	.	.	4g/	.
2F\	.	2f\	[2cc\	.
=124	=124	=124	=124	=124
2F\	0c_	2f\	4cc\]	1.cc
.	.	.	4b\	.
2F\	.	2f\	4a/	.
.	.	.	4g/	.
1F	.	1f	1a	.
.	.	.	.	2cc\
=125	=125	=125	=125	=125
[0Cl	0c_	[0el	[0gl	2cc\
.	.	.	.	2cc\
.	.	.	.	2.cc\
.	.	.	.	4dd\
=126	=126	=126	=126	=126
0C]	0c]	0e]	0g]	0eel
==	==	==	==	==
*-	*-	*-	*-	*-
!!!RDF**kern: l=long note in original notation
!!!RDF**kern: i=editorial accidental
!!!RDF**kern: V=start of tuplet marker
!!!RDF**kern: Z=end of tuplet marker
!!!ENC:	Chris Gage 06-05-2012
!!!END:	2012/06/05/
!!!EED:	Jesse Rodin
!!!EEV:	2012/06/07/
!!attribution-level@Jos: 1 (secure)
!!attribution-level@Rue: 4 (doubtful)
!!!ONB:	Translated from MusicXML and edited on 2012/06/08/ by Craig Sapp
!!muse2ps: T^@{OPR}^u^@{ONM}{. }@{OTL}^C^Josquin/La Rue?\n@{SCT}^i2I150v85,85,85,85,150c80Q16
